src/assets/filled/Activity.svg

<?xml version="1.0" encoding="UTF-8"?>
<svg width="24" height="24" viewBox="0 0 24 24" xmlns="http://www.w3.org/2000/svg">
 <path d="m16.19 2h-8.38c-3.64 0-5.81 2.17-5.81 5.81v8.37c0 3.65 2.17 5.82 5.81 5.82h8.37c3.64 0 5.81-2.17 5.81-5.81v-8.38c0.01-3.64-2.16-5.81-5.8-5.81zm1.07 7.96-2.31 2.98c-0.29 0.37-0.7 0.61-1.17 0.66-0.47 0.06-0.93-0.07-1.3-0.36l-1.83-1.44c-0.07-0.06-0.15-0.06-0.19-0.05-0.04 0-0.11 0.02-0.17 0.1l-2.38 3.09c-0.15 0.19-0.37 0.29-0.59 0.29-0.16 0-0.32-0.05-0.46-0.16-0.33-0.25-0.39-0.72-0.14-1.05l2.38-3.09c0.29-0.37 0.7-0.61 1.17-0.67 0.46-0.06 0.93 0.07 1.3 0.36l1.83 1.44c0.07 0.06 0.14 0.06 0.19 0.05 0.04 0 0.11-0.02 0.17-0.1l2.31-2.98c0.25-0.33 0.73-0.39 1.05-0.13 0.33 0.27 0.39 0.74 0.14 1.06z"/>
</svg>

<svg width="24" height="24" viewBox="0 0 24 24"  xmlns="http://www.w3.org/2000/svg">
<path d="M16.19 2H7.81C4.17 2 2 4.17 2 7.81V16.18C2 19.83 4.17 22 7.81 22H16.18C19.82 22 21.99 19.83 21.99 16.19V7.81C22 4.17 19.83 2 16.19 2ZM17.26 9.96L14.95 12.94C14.66 13.31 14.25 13.55 13.78 13.6C13.31 13.66 12.85 13.53 12.48 13.24L10.65 11.8C10.58 11.74 10.5 11.74 10.46 11.75C10.42 11.75 10.35 11.77 10.29 11.85L7.91 14.94C7.76 15.13 7.54 15.23 7.32 15.23C7.16 15.23 7 15.18 6.86 15.07C6.53 14.82 6.47 14.35 6.72 14.02L9.1 10.93C9.39 10.56 9.8 10.32 10.27 10.26C10.73 10.2 11.2 10.33 11.57 10.62L13.4 12.06C13.47 12.12 13.54 12.12 13.59 12.11C13.63 12.11 13.7 12.09 13.76 12.01L16.07 9.03C16.32 8.7 16.8 8.64 17.12 8.9C17.45 9.17 17.51 9.64 17.26 9.96Z" />
</svg>
